X:353
T: Liu liu Shange
N: C1292
O: China, Anhui
S: MM, ZHONGGUO MINGE XUAN S.93]
N: Gesprochener Rhythmus in der dritten Zeile; Verzierung
N: Pinyin-Text der ersten Strophe vorhanden!
R: Shange. Xin minge]
M: 2/4
L: 1/16
K: F
c2cAd2AG | F4F4 | F4F4
c2c2d2cA | c4c4 | c4c4
f2fdc2d2 | c2c2A2G2 | c2G2c2AG | F3GF4 | F3GF4

